assets/images/subject/icon-study-edit.svg

<svg xmlns="http://www.w3.org/2000/svg" xmlns:xlink="http://www.w3.org/1999/xlink" width="12.65" height="14.931" viewBox="0 0 12.65 14.931">
  <defs>
    <clipPath id="clip">
      <use xlink:href="#fill"/>
    </clipPath>
    <clipPath id="clip-2">
      <use xlink:href="#fill-2"/>
    </clipPath>
  </defs>
  <g id="그룹_1991" data-name="그룹 1991" transform="translate(-4.986 -3.552)">
    <g id="사각형_3863" data-name="사각형 3863" transform="translate(4.986 17.317)" fill="none" stroke="#a4a4a4" stroke-linecap="round" stroke-linejoin="round" stroke-width="2.5">
      <rect id="fill" width="8.537" height="1.166" stroke="none"/>
      <path d="M0,-0.08380675315856934h8.536535263061523M7.286535263061523,0v1.1661932468414307M8.536535263061523,1.25h-8.536535263061523M1.25,1.1661932468414307v-1.1661932468414307" fill="none" clip-path="url(#clip)"/>
    </g>
    <g id="사각형_3864" data-name="사각형 3864" transform="translate(14.049 17.317)" fill="none" stroke="#a4a4a4" stroke-linecap="round" stroke-linejoin="round" stroke-width="2.5">
      <rect id="fill-2" width="2.192" height="1.166" stroke="none"/>
      <path d="M0,-0.08380675315856934h2.1916587352752686M1.25,0v1.1661932468414307M2.1916587352752686,1.25h-2.1916587352752686M0.9416587352752686,1.1661932468414307v-1.1661932468414307" fill="none" clip-path="url(#clip-2)"/>
    </g>
    <path id="패스_5532" data-name="패스 5532" d="M14.016,4.2,5.755,12.369v3.053H8.631l8.355-8.26Z" fill="none" stroke="#a4a4a4" stroke-linecap="round" stroke-linejoin="round" stroke-width="1.3"/>
    <path id="패스_5533" data-name="패스 5533" d="M10.959,6.174l2.449,2.413" transform="translate(1.266 0.636)" fill="none" stroke="#a4a4a4" stroke-width="1"/>
  </g>
</svg>

<svg xmlns="http://www.w3.org/2000/svg" xmlns:xlink="http://www.w3.org/1999/xlink" width="12.65" height="14.93" viewBox="0 0 12.65 14.93"><defs><clipPath id="c"><use xlink:href="#a"/></clipPath><clipPath id="d"><use xlink:href="#b"/></clipPath></defs><g fill="none" stroke="#a4a4a4"><g stroke-linecap="round" stroke-linejoin="round" stroke-width="2.5" transform="translate(0 13.765)"><path id="a" stroke="none" d="M0 0h8.54v1.17H0z"/><path d="M0-.084h8.537M7.287 0v1.166m1.25.084H0m1.25-.084V0" clip-path="url(#c)"/></g><g stroke-linecap="round" stroke-linejoin="round" stroke-width="2.5" transform="translate(9.063 13.765)"><path id="b" stroke="none" d="M0 0h2.19v1.17H0z"/><path d="M0-.084h2.192M1.25 0v1.166m.942.084H0m.942-.084V0" clip-path="url(#d)"/></g><path stroke-linecap="round" stroke-linejoin="round" stroke-width="1.3" d="M9.03.648L.769 8.817v3.053h2.876L12 3.61z"/><path d="M7.239 3.258l2.449 2.413"/></g></svg>
